Modules/BetterCms.Module.Root/Scss/base_64/icons/editor-table.svg

<svg xmlns="http://www.w3.org/2000/svg" width="16" height="14" viewBox="0 0 16 14" enable-background="new 0 0 16 14">
 <path fill="#474747" d="m0 0v2 10 2h16v-2-10-2h-16m1 4h4v4h-4v-4m5 0h4v4h-4v-4m5 0h4v4h-4v-4m-10 5h4v4h-4v-4m5 0h4v4h-4v-4m5 0h4v4h-4v-4"/>
</svg>

<svg version="1.1" id="Layer_1" xmlns="http://www.w3.org/2000/svg" xmlns:xlink="http://www.w3.org/1999/xlink" x="0px" y="0px"
	 width="16px" height="14px" viewBox="0 0 16 14" enable-background="new 0 0 16 14" xml:space="preserve">
<path id="path4770" fill="#474747" d="M0,0v2v10v2h16v-2V2V0H0z M1,4h4v4H1V4z M6,4h4v4H6V4z M11,4h4v4h-4V4z M1,9h4v4H1V9z M6,9h4v4H6V9z M11,9h4v4h-4V9z"/>
</svg>
